X: 43475
T: Yellow Horse, The
R: jig
M: 6/8
K: Gmajor
|:=f3 e2d|ege edB|d2e =fed|egg g2a|
bab g2d|e/^f/ge edB|geg dec|B2d d2e:|
|:dBA G2B|AGA B2A|GDE G2B|ABd ege|
dBA G2B|AGA B2d|geg dec|B2d d2e:|

